gtk/icon/48x48/apps/brave.svg

<svg xmlns="http://www.w3.org/2000/svg" width="48" height="48" version="1.1" viewBox="0 0 48 48">
 <path d="m 17.72698,4.9999872 -3.337543,3.566406 C 14.345162,8.5811333 14.019075,8.3065322 13.663375,8.2011589 12.710006,7.918753 11.499536,7.966956 10.677153,8.3437371 10.139177,8.5902001 9.9306344,8.763632 8.6512054,10.031237 c -1.3790267,1.36625 -1.6512019,1.694104 -1.6512056,1.984375 0,0.07517 0.4983171,0.808457 0.743628,1.382813 l 0.4450058,1.044921 -0.5718713,1.582032 c -0.314434,0.870021 -0.5857893,1.629615 -0.6050517,1.689453 -0.048779,0.152466 4.4158344,17.349641 4.6491394,17.908203 0.423536,1.013944 1.089361,1.923222 1.951779,2.667968 0.778709,0.672446 8.681717,6.111571 9.464179,6.513671 0.231586,0.119018 0.604646,0.187767 0.923192,0.195326 0.318553,-0.0076 0.691605,-0.07631 0.923191,-0.195326 0.782462,-0.4021 8.68547,-5.841229 9.464179,-6.513671 0.862418,-0.744746 1.528243,-1.654024 1.951779,-2.667968 0.233304,-0.558562 4.697921,-17.755737 4.649143,-17.908203 -0.01927,-0.05984 -0.29062,-0.819432 -0.605054,-1.689453 l -0.571872,-1.582032 0.445005,-1.044921 c 0.245329,-0.574356 0.74363,-1.307638 0.74363,-1.382813 -4e-6,-0.290272 -0.272164,-0.618125 -1.651204,-1.984375 C 38.069366,8.763632 37.860823,8.5902001 37.322846,8.3437371 36.500463,7.966956 35.289993,7.918753 34.336624,8.2011589 33.980926,8.3065322 33.654837,8.5811337 33.610562,8.5663932 L 30.273019,4.9999872 H 24 Z" style="opacity:0.2"/>
 <path style="fill:#ee5132" d="m 17.72698,3.9999998 -3.337543,3.566406 C 14.345162,7.581146 14.019075,7.3065448 13.663375,7.2011715 12.710006,6.9187656 11.499536,6.9669686 10.677153,7.3437497 10.139177,7.5902127 9.9306344,7.7636446 8.6512054,9.0312497 7.2721787,10.3975 7.0000035,10.725354 6.9999998,11.015625 c 0,0.07517 0.4983171,0.808457 0.743628,1.382813 l 0.4450058,1.044921 -0.5718713,1.582032 c -0.314434,0.87002 -0.5857893,1.629614 -0.6050517,1.689453 -0.048779,0.152466 4.4158344,17.349641 4.6491394,17.908202 0.423536,1.013945 1.089361,1.923222 1.951779,2.667969 0.778709,0.672445 8.681717,6.111571 9.464179,6.513671 0.231586,0.119017 0.604646,0.187767 0.923192,0.195326 0.318553,-0.0076 0.691605,-0.07631 0.923191,-0.195326 0.782462,-0.4021 8.68547,-5.84123 9.464179,-6.513671 0.862418,-0.744747 1.528243,-1.654024 1.951779,-2.667969 0.233304,-0.558561 4.697921,-17.755737 4.649143,-17.908202 -0.01927,-0.05984 -0.29062,-0.819433 -0.605054,-1.689453 l -0.571872,-1.582032 0.445005,-1.044921 c 0.245329,-0.574356 0.74363,-1.307638 0.74363,-1.382813 -4e-6,-0.290272 -0.272164,-0.618125 -1.651204,-1.9843753 -1.279431,-1.2676051 -1.487974,-1.441037 -2.025951,-1.6875 C 36.500463,6.9669686 35.289993,6.9187656 34.336624,7.2011715 33.980926,7.3065448 33.654837,7.5811463 33.610562,7.5664058 L 30.273019,3.9999998 H 24 Z"/>
 <path d="m 25.579665,34.924459 c 0,0 1.717919,-1.155363 3.247334,-2.27176 0.860417,-0.628082 0.996024,-0.788221 0.855407,-1.010344 -0.112569,-0.177637 -2.88841,-1.570507 -4.215492,-2.115023 -1.395861,-0.572712 -1.5425,-0.573392 -2.896547,-0.01134 -1.21419,0.502526 -3.946001,1.880466 -4.175249,2.105953 -0.236704,0.232819 -0.117501,0.446362 0.479049,0.858066 1.228921,0.848164 3.584933,2.479332 3.584933,2.479332 1.601983,1.392492 1.477588,1.393852 3.120565,-0.03402 z M 19.14014,29.942551 c 1.666044,-0.798803 1.915112,-0.963969 3.188704,-2.114533 1.070678,-0.967218 1.268802,-1.254954 1.116471,-1.621417 -0.05161,-0.123968 -0.856129,-0.881045 -1.787853,-1.682116 -2.202178,-1.89343 -2.10999,-1.626558 -1.272038,-3.681789 0.497617,-1.220485 0.627522,-1.628939 0.625759,-1.96732 -0.003,-0.511181 -0.188625,-0.894727 -0.56237,-1.159899 -0.151551,-0.107717 -1.482187,-0.654841 -2.95697,-1.216365 -1.474783,-0.561487 -2.67298,-1.058041 -2.662659,-1.103509 0.02355,-0.103937 1.64993,-0.284599 2.830602,-0.314457 l 0.893085,-0.02268 1.641733,0.584731 c 1.432567,0.510236 1.657436,0.614967 1.764916,0.822047 0.06774,0.130772 0.122241,0.306142 0.121115,0.38982 -0.001,0.08391 -0.266616,1.29653 -0.589965,2.694804 -0.566367,2.449096 -0.58232,2.548044 -0.435089,2.697637 0.233605,0.237355 2.523625,0.78841 3.238555,0.732775 0.816639,-0.0635 2.484857,-0.571653 2.653351,-0.741959 0.136191,-0.137953 0.110377,-0.294047 -0.444338,-2.688453 -0.323901,-1.398274 -0.589825,-2.610898 -0.590937,-2.694804 -0.001,-0.0839 0.05381,-0.260031 0.121999,-0.391483 0.107581,-0.207118 0.319004,-0.308787 1.594798,-0.763767 2.056752,-0.733946 2.014937,-0.727899 3.883874,-0.558576 0.871491,0.07899 1.619468,0.176882 1.662166,0.2177 0.04579,0.04384 -0.006,0.106961 -0.127582,0.153449 -0.112872,0.04346 -1.315207,0.503849 -2.671849,1.022892 -1.356631,0.51908 -2.609079,1.037669 -2.783205,1.152415 -0.409276,0.269859 -0.607942,0.65503 -0.610718,1.184391 -0.002,0.334866 0.127261,0.74022 0.61139,1.921701 0.337489,0.823596 0.613613,1.574778 0.613613,1.669228 0,0.38211 -0.2793,0.690671 -1.827493,2.018797 -0.889497,0.763086 -1.67907,1.499754 -1.754605,1.637027 -0.07555,0.137196 -0.118703,0.346582 -0.0959,0.465486 0.03908,0.203339 1.104396,1.253934 2.189543,2.158942 0.455611,0.379994 3.215789,2.142009 3.657973,2.21348 0.370307,0.0601 0.766094,-0.503811 1.413798,-1.051162 0.635077,-0.536806 1.01358,-1.074028 1.270906,-1.803742 0.241345,-0.684472 0.180661,-1.145688 -0.296674,-2.254677 -0.364233,-0.846236 -0.460932,-1.311042 -0.33874,-1.628258 0.02808,-0.07295 1.01366,-1.024365 2.190184,-2.114343 2.562845,-2.3743 3.17451,-2.799685 3.315015,-3.223862 0.156056,-0.471005 0.04596,-1.091376 -0.304229,-1.715338 -0.837782,-1.492574 -4.316143,-6.165619 -4.611617,-6.165619 -1.521955,0.248315 -2.795644,0.797405 -4.399245,1.049726 -0.125968,1.89e-4 -0.661822,-0.133417 -1.190783,-0.297449 -2.258524,-0.698872 -2.99107,-0.752391 -3.428374,-0.752391 -0.437303,0 -1.169849,0.05329 -3.428373,0.752391 -0.528961,0.163654 -1.070647,0.297827 -1.203729,0.297827 -1.57981,-0.233197 -2.750903,-0.859994 -4.386341,-1.050104 -0.254963,0.172346 -2.517201,3.337852 -3.453835,4.72097 -1.10143,1.626406 -1.412706,1.835565 -1.50229,2.454803 -0.1253479,0.866532 0.193342,1.012384 3.483808,4.054942 1.106841,1.023382 2.035017,1.919282 2.062603,1.990904 0.123462,0.320881 0.02593,0.804472 -0.33298,1.651577 -0.492907,1.16349 -0.537057,1.486489 -0.299153,2.188952 0.258708,0.76388 0.697274,1.381493 1.359707,1.914746 0.615999,0.495836 0.854235,0.992542 1.217688,1.000743 0.130076,0.003 0.862041,-0.668711 1.626593,-1.035174 z" style="opacity:0.2"/>
 <path d="m 25.579665,33.924434 c 0,0 1.717919,-1.155364 3.247334,-2.27176 0.860417,-0.628082 0.996024,-0.788221 0.855407,-1.010344 -0.112569,-0.177638 -2.88841,-1.570507 -4.215492,-2.115023 -1.395861,-0.572712 -1.5425,-0.573392 -2.896547,-0.01134 -1.21419,0.502526 -3.946001,1.880466 -4.175249,2.105953 -0.236704,0.232819 -0.117501,0.446362 0.479049,0.858066 1.228921,0.848164 3.584933,2.479332 3.584933,2.479332 1.601983,1.392491 1.477588,1.393852 3.120565,-0.03402 z M 19.14014,28.942526 c 1.666044,-0.798804 1.915112,-0.963969 3.188704,-2.114533 1.070678,-0.967219 1.268802,-1.254954 1.116471,-1.621417 -0.05161,-0.123969 -0.856129,-0.881046 -1.787853,-1.682117 -2.202178,-1.893429 -2.10999,-1.626557 -1.272038,-3.681788 0.497617,-1.220485 0.627522,-1.628939 0.625759,-1.96732 -0.003,-0.511181 -0.188625,-0.894728 -0.56237,-1.159899 -0.151551,-0.107717 -1.482187,-0.654841 -2.95697,-1.216366 -1.474783,-0.561486 -2.67298,-1.058041 -2.662659,-1.103508 0.02355,-0.103937 1.64993,-0.284599 2.830602,-0.314457 l 0.893085,-0.02268 1.641733,0.584731 c 1.432567,0.510236 1.657436,0.614966 1.764916,0.822047 0.06774,0.130771 0.122241,0.306142 0.121115,0.38982 -0.001,0.08391 -0.266616,1.296529 -0.589965,2.694803 -0.566367,2.449096 -0.58232,2.548044 -0.435089,2.697638 0.233605,0.237354 2.523625,0.78841 3.238555,0.732775 0.816639,-0.0635 2.484857,-0.571654 2.653351,-0.741959 0.136191,-0.137953 0.110377,-0.294047 -0.444338,-2.688454 -0.323901,-1.398274 -0.589825,-2.610897 -0.590937,-2.694803 -0.001,-0.0839 0.05381,-0.260031 0.121999,-0.391483 0.107581,-0.207118 0.319004,-0.308788 1.594798,-0.763767 2.056752,-0.733947 2.014937,-0.727899 3.883874,-0.558576 0.871491,0.07899 1.619468,0.176881 1.662166,0.2177 0.04579,0.04384 -0.006,0.106961 -0.127582,0.153449 -0.112872,0.04346 -1.315207,0.503849 -2.671849,1.022891 -1.356631,0.519081 -2.609079,1.03767 -2.783205,1.152416 -0.409276,0.269858 -0.607942,0.65503 -0.610718,1.184391 -0.002,0.334866 0.127261,0.74022 0.61139,1.9217 0.337489,0.823597 0.613613,1.574778 0.613613,1.669229 0,0.38211 -0.2793,0.690671 -1.827493,2.018797 -0.889497,0.763086 -1.67907,1.499754 -1.754605,1.637026 -0.07555,0.137197 -0.118703,0.346583 -0.0959,0.465487 0.03908,0.203339 1.104396,1.253934 2.189543,2.158942 0.455611,0.379993 3.215789,2.142009 3.657973,2.21348 0.370307,0.06009 0.766094,-0.503811 1.413798,-1.051162 0.635077,-0.536807 1.01358,-1.074029 1.270906,-1.803742 0.241345,-0.684472 0.180661,-1.145688 -0.296674,-2.254677 -0.364233,-0.846236 -0.460932,-1.311043 -0.33874,-1.628258 0.02808,-0.07295 1.01366,-1.024366 2.190184,-2.114344 2.562845,-2.374299 3.17451,-2.799685 3.315015,-3.223861 0.156056,-0.471005 0.04596,-1.091376 -0.304229,-1.715339 -0.837782,-1.492573 -4.316143,-6.1656183 -4.611617,-6.1656183 -1.521955,0.2483153 -2.795644,0.7974043 -4.399245,1.0497263 -0.125968,1.89e-4 -0.661822,-0.133418 -1.190783,-0.297449 -2.258524,-0.698873 -2.99107,-0.7523907 -3.428374,-0.7523907 -0.437303,0 -1.169849,0.053292 -3.428373,0.7523907 -0.528961,0.163653 -1.070647,0.297827 -1.203729,0.297827 -1.57981,-0.233197 -2.750903,-0.859994 -4.386341,-1.0501043 -0.254963,0.1723463 -2.517201,3.3378523 -3.453835,4.7209703 -1.10143,1.626406 -1.412706,1.835565 -1.50229,2.454803 -0.1253479,0.866532 0.193342,1.012384 3.483808,4.054941 1.106841,1.023383 2.035017,1.919282 2.062603,1.990904 0.123462,0.320882 0.02593,0.804473 -0.33298,1.651578 -0.492907,1.16349 -0.537057,1.486488 -0.299153,2.188951 0.258708,0.763881 0.697274,1.381493 1.359707,1.914747 0.615999,0.495836 0.854235,0.992542 1.217688,1.000743 0.130076,0.003 0.862041,-0.668712 1.626593,-1.035175 z" style="fill:#ffffff"/>
 <path style="opacity:0.1;fill:#ffffff" d="m 17.726562,4 -3.33789,3.5664062 c -0.04427,0.01474 -0.36891,-0.2598611 -0.72461,-0.3652343 C 12.710694,6.918766 11.500118,6.9669689 10.677734,7.34375 10.139758,7.590213 9.9298197,7.7636448 8.6503906,9.03125 7.2713639,10.3975 7.0000038,10.725354 7,11.015625 c 0,0.03553 0.1203482,0.233245 0.2636719,0.476563 0.2288021,-0.28975 0.6334484,-0.714647 1.3867187,-1.460938 1.2794291,-1.2676052 1.4893674,-1.441037 2.0273434,-1.6875 0.822384,-0.3767811 2.03296,-0.424984 2.986328,-0.1425781 0.3557,0.1053732 0.680335,0.3799745 0.72461,0.3652343 L 17.726562,5 H 24 30.273438 l 3.33789,3.5664062 c 0.04427,0.014741 0.368912,-0.2598611 0.72461,-0.3652343 0.953368,-0.2824059 2.163944,-0.234203 2.986328,0.1425781 0.537977,0.246463 0.747913,0.4198948 2.027343,1.6875 0.753278,0.746291 1.15792,1.171188 1.386719,1.460938 C 40.87965,11.24887 41,11.051158 41,11.015625 40.999996,10.725354 40.728649,10.3975 39.349609,9.03125 38.070179,7.7636448 37.860243,7.590213 37.322266,7.34375 36.499882,6.9669689 35.289306,6.918766 34.335938,7.2011719 33.98024,7.3065451 33.655603,7.5811468 33.611328,7.5664062 L 30.273438,4 H 24 Z m -9.7324214,9.984375 -0.3769531,1.041016 c -0.314434,0.87002 -0.5862064,1.629615 -0.6054687,1.689453 -0.00262,0.0082 0.1224905,0.496449 0.1445312,0.597656 0.097132,-0.274075 0.2214061,-0.62434 0.4609375,-1.287109 l 0.5722656,-1.582032 z m 32.0117184,0 -0.195312,0.458984 0.572265,1.582032 c 0.239532,0.662769 0.363805,1.013034 0.460938,1.287109 0.02204,-0.101207 0.14715,-0.589472 0.144531,-0.597656 -0.01926,-0.05984 -0.291034,-0.819433 -0.605469,-1.689453 z"/>
</svg>

<svg xmlns="http://www.w3.org/2000/svg" width="48" height="48" version="1.1">
 <path style="opacity:0.2" d="M 17.727,5 14.389,8.5664 C 14.345,8.5811 14.019,8.3065 13.663,8.2012 12.71,7.9188 11.5,7.967 10.677,8.3437 10.139,8.5902 9.9306,8.7636 8.6512,10.031 7.2722,11.397 7,11.725 7,12.016 7,12.091 7.4983,12.824 7.7436,13.398 L 8.1886,14.443 7.6168,16.025 C 7.3023,16.895 7.031,17.655 7.0117,17.715 6.9629,17.867 11.428,35.064 11.661,35.623 12.084,36.637 12.75,37.546 13.613,38.291 14.391,38.963 22.294,44.403 23.077,44.805 23.308,44.924 23.681,44.992 24,45 24.319,44.992 24.692,44.924 24.923,44.805 25.706,44.403 33.609,38.963 34.387,38.291 35.25,37.546 35.916,36.637 36.339,35.623 36.572,35.064 41.037,17.867 40.988,17.715 40.969,17.655 40.698,16.895 40.383,16.025 L 39.811,14.443 40.256,13.398 C 40.502,12.824 41,12.091 41,12.016 41,11.725 40.728,11.397 39.349,10.031 38.069,8.7636 37.861,8.5902 37.323,8.3437 36.5,7.967 35.29,7.9188 34.337,8.2012 33.981,8.3065 33.655,8.5811 33.611,8.5664 L 30.273,5 H 24 Z"/>
 <path style="fill:#ee5132" d="M 17.727,4 14.389,7.5664 C 14.345,7.5811 14.019,7.3065 13.663,7.2012 12.71,6.9188 11.5,6.967 10.677,7.3437 10.139,7.5902 9.9306,7.7636 8.6512,9.0312 7.2722,10.398 7,10.725 7,11.016 7,11.091 7.4983,11.824 7.7436,12.398 L 8.1886,13.443 7.6168,15.025 C 7.3023,15.895 7.031,16.655 7.0117,16.715 6.9629,16.867 11.428,34.064 11.661,34.623 12.084,35.637 12.75,36.546 13.613,37.291 14.391,37.963 22.294,43.403 23.077,43.805 23.308,43.924 23.681,43.992 24,44 24.319,43.992 24.692,43.924 24.923,43.805 25.706,43.403 33.609,37.963 34.387,37.291 35.25,36.546 35.916,35.637 36.339,34.623 36.572,34.064 41.037,16.867 40.988,16.715 40.969,16.655 40.698,15.895 40.383,15.025 L 39.811,13.443 40.256,12.398 C 40.502,11.824 41,11.091 41,11.016 41,10.725 40.728,10.398 39.349,9.0312 38.069,7.7636 37.861,7.5902 37.323,7.3437 36.5,6.967 35.29,6.9188 34.337,7.2012 33.981,7.3065 33.655,7.5811 33.611,7.5664 L 30.273,4 H 24 Z"/>
 <path style="opacity:0.2" d="M 25.58,34.924 C 25.58,34.924 27.298,33.769 28.827,32.653 29.687,32.025 29.823,31.864 29.682,31.642 29.57,31.465 26.794,30.072 25.467,29.527 24.071,28.955 23.924,28.954 22.57,29.516 21.356,30.019 18.624,31.396 18.395,31.622 18.158,31.855 18.278,32.068 18.874,32.48 20.103,33.328 22.459,34.959 22.459,34.959 24.061,36.352 23.937,36.353 25.58,34.925 Z M 19.14,29.943 C 20.806,29.144 21.055,28.979 22.329,27.828 23.4,26.861 23.598,26.573 23.445,26.207 23.394,26.083 22.589,25.326 21.657,24.524 19.455,22.631 19.547,22.898 20.385,20.843 20.883,19.622 21.013,19.214 21.011,18.875 21.008,18.364 20.823,17.981 20.449,17.715 20.297,17.608 18.967,17.061 17.492,16.499 16.017,15.938 14.819,15.441 14.829,15.396 14.853,15.292 16.479,15.111 17.66,15.081 L 18.553,15.058 20.195,15.643 C 21.627,16.153 21.852,16.258 21.96,16.465 22.027,16.596 22.082,16.771 22.081,16.855 22.08,16.939 21.814,18.152 21.491,19.55 20.924,21.999 20.908,22.098 21.056,22.248 21.289,22.485 23.579,23.036 24.294,22.98 25.111,22.917 26.779,22.409 26.947,22.238 27.084,22.1 27.058,21.944 26.503,19.55 26.179,18.152 25.913,16.939 25.912,16.855 25.911,16.771 25.966,16.595 26.034,16.464 26.142,16.256 26.353,16.155 27.629,15.7 29.686,14.966 29.644,14.972 31.513,15.141 32.384,15.22 33.132,15.318 33.175,15.359 33.221,15.403 33.169,15.466 33.047,15.512 32.935,15.556 31.732,16.016 30.376,16.535 29.019,17.054 27.767,17.573 27.592,17.688 27.183,17.958 26.984,18.343 26.982,18.872 26.98,19.207 27.109,19.612 27.593,20.794 27.931,21.617 28.207,22.369 28.207,22.463 28.207,22.845 27.927,23.154 26.379,24.482 25.49,25.245 24.7,25.982 24.625,26.119 24.549,26.256 24.506,26.465 24.529,26.584 24.568,26.788 25.633,27.838 26.718,28.743 27.174,29.123 29.934,30.885 30.376,30.957 30.747,31.017 31.142,30.453 31.79,29.906 32.425,29.369 32.804,28.832 33.061,28.102 33.302,27.417 33.242,26.956 32.764,25.847 32.4,25.001 32.303,24.536 32.426,24.219 32.454,24.146 33.439,23.195 34.616,22.105 37.179,19.73 37.79,19.305 37.931,18.881 38.087,18.41 37.977,17.789 37.626,17.165 36.789,15.673 33.31,11 33.015,11 31.493,11.248 30.219,11.797 28.616,12.049 28.49,12.05 27.954,11.916 27.425,11.752 25.166,11.053 24.434,11 23.996,11 23.559,11 22.827,11.053 20.568,11.752 20.039,11.916 19.497,12.05 19.364,12.05 17.785,11.817 16.613,11.19 14.978,11 14.723,11.172 12.461,14.338 11.524,15.721 10.423,17.347 10.111,17.556 10.022,18.176 9.8965,19.042 10.215,19.188 13.506,22.23 14.613,23.254 15.541,24.15 15.568,24.221 15.692,24.542 15.594,25.026 15.235,25.873 14.742,27.036 14.698,27.359 14.936,28.062 15.195,28.826 15.633,29.443 16.296,29.977 16.912,30.472 17.15,30.969 17.514,30.977 17.644,30.98 18.376,30.309 19.14,29.942 Z"/>
 <path style="fill:#ffffff" d="M 25.58,33.924 C 25.58,33.924 27.298,32.769 28.827,31.653 29.687,31.025 29.823,30.864 29.682,30.642 29.57,30.465 26.794,29.072 25.467,28.527 24.071,27.955 23.924,27.954 22.57,28.516 21.356,29.018 18.624,30.396 18.395,30.622 18.158,30.855 18.278,31.068 18.874,31.48 20.103,32.328 22.459,33.959 22.459,33.959 24.061,35.352 23.937,35.353 25.58,33.925 Z M 19.14,28.943 C 20.806,28.144 21.055,27.979 22.329,26.828 23.4,25.861 23.598,25.573 23.445,25.207 23.394,25.083 22.589,24.326 21.657,23.524 19.455,21.631 19.547,21.898 20.385,19.843 20.883,18.622 21.013,18.214 21.011,17.875 21.008,17.364 20.823,16.981 20.449,16.715 20.297,16.608 18.967,16.061 17.492,15.499 16.017,14.938 14.819,14.441 14.829,14.396 14.853,14.292 16.479,14.111 17.66,14.081 L 18.553,14.058 20.195,14.643 C 21.627,15.153 21.852,15.258 21.96,15.465 22.027,15.596 22.082,15.771 22.081,15.855 22.08,15.939 21.814,17.152 21.491,18.55 20.924,20.999 20.908,21.098 21.056,21.247 21.289,21.485 23.579,22.036 24.294,21.98 25.111,21.917 26.779,21.409 26.947,21.238 27.084,21.1 27.058,20.944 26.503,18.55 26.179,17.152 25.913,15.939 25.912,15.855 25.911,15.771 25.966,15.595 26.034,15.464 26.142,15.256 26.353,15.155 27.629,14.7 29.686,13.966 29.644,13.972 31.513,14.141 32.384,14.22 33.132,14.318 33.175,14.359 33.221,14.403 33.169,14.466 33.047,14.512 32.935,14.556 31.732,15.016 30.376,15.535 29.019,16.054 27.767,16.573 27.592,16.688 27.183,16.958 26.984,17.343 26.982,17.872 26.98,18.207 27.109,18.612 27.593,19.794 27.931,20.617 28.207,21.369 28.207,21.463 28.207,21.845 27.927,22.154 26.379,23.482 25.49,24.245 24.7,24.982 24.625,25.119 24.549,25.256 24.506,25.465 24.529,25.584 24.568,25.788 25.633,26.838 26.718,27.743 27.174,28.123 29.934,29.885 30.376,29.957 30.747,30.017 31.142,29.453 31.79,28.906 32.425,28.369 32.804,27.832 33.061,27.102 33.302,26.417 33.242,25.956 32.764,24.847 32.4,24.001 32.303,23.536 32.426,23.219 32.454,23.146 33.439,22.195 34.616,21.105 37.179,18.73 37.79,18.305 37.931,17.881 38.087,17.41 37.977,16.789 37.626,16.165 36.789,14.673 33.31,9.9997 33.015,9.9997 31.493,10.248 30.219,10.797 28.616,11.049 28.49,11.05 27.954,10.916 27.425,10.752 25.166,10.053 24.434,9.9996 23.996,9.9996 23.559,9.9996 22.827,10.053 20.568,10.752 20.039,10.916 19.497,11.05 19.364,11.05 17.785,10.817 16.613,10.19 14.978,9.9997 14.723,10.172 12.461,13.338 11.524,14.721 10.423,16.347 10.111,16.556 10.022,17.175 9.8965,18.042 10.215,18.188 13.506,21.23 14.613,22.254 15.541,23.15 15.568,23.221 15.692,23.542 15.594,24.026 15.235,24.873 14.742,26.036 14.698,26.359 14.936,27.062 15.195,27.826 15.633,28.443 16.296,28.977 16.912,29.472 17.15,29.969 17.514,29.977 17.644,29.98 18.376,29.309 19.14,28.942 Z"/>
 <path style="opacity:0.1;fill:#ffffff" d="M 17.727,4 14.389,7.5664 C 14.344,7.5811 14.02,7.3065 13.664,7.2012 12.711,6.9188 11.5,6.967 10.678,7.3437 10.14,7.5902 9.9298,7.7636 8.6504,9.0312 7.2714,10.398 7,10.725 7,11.016 7,11.051 7.1203,11.249 7.2637,11.492 7.4925,11.202 7.8971,10.778 8.6504,10.031 9.9298,8.7636 10.14,8.5902 10.678,8.3437 11.5,7.967 12.711,7.9188 13.664,8.2012 14.02,8.3065 14.344,8.5811 14.389,8.5664 L 17.727,5 H 24 30.273 L 33.611,8.5664 C 33.656,8.5811 33.98,8.3065 34.336,8.2012 35.289,7.9188 36.5,7.967 37.322,8.3437 37.86,8.5902 38.07,8.7636 39.35,10.031 40.103,10.778 40.508,11.202 40.736,11.492 40.88,11.249 41,11.051 41,11.016 41,10.725 40.729,10.398 39.35,9.0312 38.07,7.7636 37.86,7.5902 37.322,7.3437 36.5,6.967 35.289,6.9188 34.336,7.2012 33.98,7.3065 33.656,7.5811 33.611,7.5664 L 30.273,4 H 24 Z M 7.9941,13.984 7.6172,15.025 C 7.3028,15.895 7.031,16.655 7.0117,16.715 7.0091,16.723 7.1342,17.211 7.1563,17.312 7.2534,17.038 7.3777,16.688 7.6172,16.025 L 8.1895,14.443 Z M 40.006,13.984 39.811,14.443 40.383,16.025 C 40.622,16.688 40.747,17.038 40.844,17.312 40.866,17.211 40.991,16.723 40.988,16.715 40.969,16.655 40.697,15.895 40.383,15.025 Z"/>
</svg>
